X:1
T:Come again, sweet love doth now invite
T:John Dowland (1562-1626)
%%score 1 2 3 4
L:1/8
M:2/2
K:Ab
V:1 treble nm="S"
V:2 treble nm="Mz"
V:3 treble nm="A1"
V:4 treble nm="A2"
V:1
 z2 c3/2 d/ | e4 z2 e2 | f2 e2 d3 d | c4 z2 e2 | e2 d2 c2 c2 | B4 z2 B2 | c2 A2 d3 d | B4 |: %8
w: Come a-|gain, sweet|love doth now in-|vite Thy|gra- ces that re-|frain To|do me due de-|light,|
w: Come a-|gain that|I may cease to|mourn Through|thy un- kind dis-|dain; For|now left and for-|lorn,|
w: Gen- tle|love, draw|forth thy wound- ing|dart: Thou|canst not pierce her|heart; For|I that do ap-|prove|
 z E A2 | z F B2 z G c2 | z A d2 z B e2- | e8 | z e d c B2 z c | B A A3 (G/F/ G2) | A4 |] %15
w: To see,|to hear, to touch,|to kiss, to die|_|With thee a- gain in|sweet- est sym- pa- * *|thy.|
w: I sit,|I sigh, I weep,|I faint, I die|_|In dead- ly pain and|end- less mi- se- * *|ry.|
w: By sighs|and tears more hot|than are thy shafts,|_|Did tempt while she for|scan- ty try- umphs _ _|laughs.|
V:2
 A3 A | A4 z2 c2 | B A A4 G2 | A4 z2 A2 | A2 (F>G) A3 A | G4 z2 G2 | A3 E F3 F | G4 |: E4 | %9
w: Come a-|gain, sweet|love doth now in-|vite Thy|gra- ces _ that re-|frain To|do me due de-|light,|To|
w: Come a-|gain that|I may cease to|mourn Through|thy un- * kind dis-|dain; For|now left and for-|lorn,|I|
w: Gen- tle|love, draw|forth thy wound- ing|dart: Thou|canst not _ pierce her|heart; For|I that do ap-|prove|By|
 F2 z F G2 z G | A2 z A B2 z B | c6 B2 | A3/2 G/ F A G3 A | F2 (CD) E3 D | C4 |] %15
w: see, to hear, to|touch, to kiss, to|die, to|die with thee a- gain in|sweet- est _ sym- pa-|thy.|
w: sit, I sigh, I|weep, I faint, I|die, I|die in dead- ly pain and|end- less _ mi- se-|ry.|
w: sighs and tears more|hot than are thy|shafts, thy|shafts, Did tempt while she for|scan- ty _ try- umphs|laughs.|
V:3
 E3 E | C4 z2 C2 | D2 E2 F3 (E/D/) | E4 z2 C2 | C2 B,2 A,2 E2 | E4 z2 E2 | E3 E E2 =D2 | E4 |: C4 | %9
w: Come a-|gain, sweet|love doth now in- *|vite Thy|gra- ces that re-|frain To|do me due de-|light,|To|
w: Come a-|gain that|I may cease to _|mourn Through|thy un- kind dis-|dain; For|now left and for-|lorn,|I|
w: Gen- tle|love, draw|forth thy wound- ing _|dart: Thou|canst not pierce her|heart; For|I that do ap-|prove|By|
 D2 z D B,2 z E | C2 z F E2 z D | C A, A, B, C2 D2 | E2 z A, E3 E | D C C (D/E/) B,3 B, | A,4 |] %15
w: see, to hear, to|touch, to kiss, to|die, to die with thee a-|gain, with thee a-|gain in sweet- est _ sym- pa-|thy.|
w: sit, I sigh, I|weep, I faint, I|die, I die in dead- ly|pain, in dead- ly|pain and end- less _ mi- se-|ry.|
w: sighs and tears more|hot than are thy|shafts, thy shafts, Did tempt while|she, did tempt while|she for scan- ty _ try- umphs|laughs.|
V:4
 A,2 A,2 | A,4 z2 A,2 | D2 C2 B,3 B, | A,4 z2 A,2 | A,2 B,2 C2 A,2 | E4 z2 E2 | A,2 C2 B,3 B, | %7
w: Come a-|gain, sweet|love doth now in-|vite Thy|gra- ces that re-|frain To|do me due de-|
w: Come a-|gain that|I may cease to|mourn Through|thy un- kind dis-|dain; For|now left and for-|
w: Gen- tle|love, draw|forth thy wound- ing|dart: Thou|canst not piearce her|heart; For|I that do ap-|
 E4 |: A,4 | A,3 D E3 E | F3 F G3 F | A2 A,2 A,2 B,2 | C2 D2 E2 C2 | D (E F2) E3 E | A,4 |] %15
w: light,|To|see, to hear, to|touch, to kiss, to|die, to die with|thee a- gain in|sweet- est _ sym- pa-|thy.|
w: lorn,|I|sit, I sigh, I|weep, I faint, I|die, I die in|dead- ly pain and|end- less _ mi- se-|ry.|
w: prove|By|sighs and tears more|hot than are thy|shafts, thy shafts, Did|tempt while she for|scan- ty _ try- umphs|laughs.|

